brandFactory_export/2.Regular/Click to call_2Regular.svg

<?xml version="1.0" encoding="UTF-8"?>
<svg width="24px" height="24px" viewBox="0 0 24 24" version="1.1" xmlns="http://www.w3.org/2000/svg" xmlns:xlink="http://www.w3.org/1999/xlink">
    <title>2.Regular/Click to call_2Regular</title>
    <g id="Symbols" stroke="none" stroke-width="1" fill="none" fill-rule="evenodd">
        <g id="2.Regular/Click-to-call_2Regular" fill="#5CB615" fill-rule="nonzero">
            <path d="M5.76302521,0.0336134454 C6.7815126,0.0537815126 7.78655462,0.551260504 8.7512605,1.51596639 C9.11764706,1.87563025 9.43361345,2.2789916 9.69579832,2.71596639 C10.2134454,3.54957983 10.4016807,4.41344538 10.2537815,5.27731092 C10.1058824,6.14117647 9.62521008,6.98487395 8.81848739,7.79159664 C8.6302521,7.97983193 8.43193277,8.15798319 8.22352941,8.32268908 C8.14285714,8.46386555 8.19327731,8.91092437 8.81848739,9.82521008 C9.54453781,10.8806723 10.7546218,12.1310924 11.6016807,12.9781513 L11.702521,13.0789916 C12.5495798,13.9260504 13.8,15.1361345 14.8554622,15.8621849 C15.7697479,16.487395 16.2168067,16.5344538 16.3579832,16.4571429 C16.5226891,16.2487395 16.697479,16.0470588 16.8890756,15.8621849 C17.6957983,15.0554622 18.5428571,14.5714286 19.4067227,14.4268908 C20.2705882,14.2823529 21.1310924,14.4672269 21.9680672,14.9848739 C22.4084034,15.2470588 22.8117647,15.5630252 23.1680672,15.9294118 C24.1327731,16.8941176 24.6302521,17.8991597 24.6504202,18.9176471 C24.6705882,19.9731092 24.1731092,21.0352941 23.1781513,22.0806723 C22.8285714,22.4470588 22.3411765,22.7966387 22.1798319,22.9142857 L22.1596639,22.9277311 C22.1495798,22.9344538 22.1394958,22.9411765 22.1294118,22.9512605 C21.4504202,23.4184874 20.5932773,23.6504202 19.6016807,23.6504202 C18.5596639,23.6504202 17.3731092,23.394958 16.0890756,22.8806723 C13.4672269,21.8352941 10.5966387,19.7983193 7.78991597,16.9915966 L7.68907563,16.8907563 C4.88235294,14.087395 2.8487395,11.2168067 1.8,8.59495798 C0.801680672,6.08403361 0.774789916,3.9394958 1.73277311,2.55462185 L1.75294118,2.52436975 L1.76638655,2.50420168 C1.88067227,2.34285714 2.23361345,1.85546218 2.6,1.50588235 C3.64537815,0.51092437 4.70756303,0.0134453782 5.76302521,0.0336134454 Z M5.7394958,1.37794869 C5.05378151,1.36806723 4.30756303,1.73445378 3.53109244,2.48067227 C3.34621849,2.65546218 3.1210084,2.92773109 2.85882353,3.29411765 L2.82857143,3.33445378 C2.15630252,4.32605042 2.23361345,6.0605042 3.04705882,8.10084034 C4.02521008,10.5546218 5.95798319,13.2672269 8.63361345,15.9428571 L8.68067227,15.989916 L8.69411765,16.0033613 L8.74453781,16.0436975 C11.4201681,18.7226891 14.1327731,20.6521008 16.5865546,21.6302521 C18.6268908,22.4436975 20.3613445,22.5243697 21.3529412,21.8487395 L21.3932773,21.8218487 C21.7563025,21.5596639 22.0285714,21.3344538 22.2067227,21.1495798 C22.9495798,20.3697479 23.3226891,19.6268908 23.3092437,18.9411765 C23.2957983,18.2756303 22.9394958,17.6 22.2201681,16.8773109 C21.9411765,16.5915966 21.6285714,16.3462185 21.2857143,16.1411765 L21.2655462,16.1310924 C20.707563,15.7815126 20.1731092,15.6605042 19.6319328,15.7512605 C19.0504202,15.8487395 18.4487395,16.2084034 17.8403361,16.8134454 C17.6689076,16.9815126 17.5109244,17.1596639 17.3663866,17.3512605 C17.3428571,17.3781513 17.3193277,17.405042 17.2957983,17.4285714 C17.010084,17.6941176 16.4957983,17.9663866 15.6823529,17.7579832 C15.2218487,17.6403361 14.7042017,17.3815126 14.0991597,16.9680672 C12.9495798,16.1815126 11.6420168,14.9109244 10.7546218,14.0268908 L10.6537815,13.9260504 C9.7697479,13.0420168 8.50252101,11.7310924 7.71260504,10.5848739 C7.29915966,9.97983193 7.04033613,9.46218487 6.92268908,9.00168067 C6.71764706,8.18823529 6.98991597,7.67394958 7.25546218,7.38487395 C7.2789916,7.35798319 7.30588235,7.33445378 7.33277311,7.31428571 C7.52436975,7.1697479 7.70252101,7.01176471 7.87058824,6.84033613 C8.47563025,6.23529412 8.83193277,5.63361345 8.93277311,5.0487395 C9.02352941,4.50756303 8.89915966,3.97310924 8.55294118,3.41512605 L8.54285714,3.39495798 C8.33781513,3.05210084 8.08907563,2.7394958 7.80672269,2.4605042 C7.08067227,1.74789916 6.40504202,1.39159664 5.7394958,1.37794869 Z M20.7478992,2.37310924 C21.0638655,2.4 21.3529412,2.56134454 21.5411765,2.81344538 L22.902521,4.32941176 C23.1176471,4.57142857 23.2184874,4.8907563 23.1781513,5.21008403 C23.1411765,5.5092437 22.9831933,5.78151261 22.7378151,5.95966387 L19.1176471,9.14285714 L19.9109244,10.0235294 C20.1428571,10.2823529 20.2134454,10.6117647 20.0957983,10.907563 C19.9781513,11.2033613 19.702521,11.394958 19.3529412,11.4218487 L13.8336134,11.8487395 C13.8067227,11.8521844 13.7798319,11.8521844 13.7563025,11.8521844 C13.2554622,11.8588235 12.8420168,11.4588235 12.8352941,10.9579832 C12.8352941,10.8840336 12.8420168,10.810084 12.8588235,10.7361345 L14.0218487,5.29411765 C14.092437,4.95798319 14.3176471,4.7092437 14.6201681,4.62521008 C14.9226891,4.54117647 15.2420168,4.6487395 15.4739496,4.90420168 L16.2773109,5.79159664 L19.9142857,2.66554622 C20.1361345,2.45042017 20.4420168,2.34621849 20.7478992,2.37310924 Z M20.6369748,3.81848739 L16.912605,7.02184874 C16.492437,7.37815126 15.8672269,7.33781513 15.4941176,6.93109244 L15.1344538,6.53109244 L14.2941176,10.4672269 L18.2268908,10.1613445 L17.8907563,9.79159664 C17.5494505,9.40995475 17.5489732,8.83928198 17.8761053,8.46292767 L17.9647059,8.37310924 C17.9680672,8.3697479 17.9714286,8.36638655 17.9747899,8.36638655 L21.7428571,5.0487395 L20.6369748,3.81848739 Z" id="Click-to-call_2Regular"></path>
        </g>
    </g>
</svg>

<svg width="24" height="24" viewBox="0 0 24 24" xmlns="http://www.w3.org/2000/svg"><path d="M5.763.034c1.019.02 2.024.517 2.988 1.482.367.36.683.763.945 1.2.517.834.706 1.697.558 2.561-.148.864-.629 1.708-1.436 2.515a6.848 6.848 0 01-.594.53c-.081.142-.03.589.594 1.503.727 1.056 1.937 2.306 2.784 3.153l.1.101c.848.847 2.098 2.057 3.153 2.783.915.625 1.362.672 1.503.595.165-.208.34-.41.531-.595.807-.807 1.654-1.29 2.518-1.435.864-.145 1.724.04 2.561.558.44.262.844.578 1.2.944.965.965 1.462 1.97 1.482 2.989.02 1.055-.477 2.117-1.472 3.163-.35.366-.837.716-.998.833l-.02.014a.185.185 0 00-.03.023c-.68.467-1.537.7-2.528.7-1.042 0-2.229-.256-3.513-.77-2.622-1.046-5.492-3.083-8.3-5.89l-.1-.1C4.882 14.087 2.85 11.217 1.8 8.595.802 6.084.775 3.939 1.733 2.555l.02-.03.013-.02c.115-.162.468-.65.834-1C3.645.512 4.708.014 5.763.035zm-.024 1.344c-.685-.01-1.431.356-2.208 1.103-.185.174-.41.447-.672.813l-.03.04c-.673.992-.595 2.727.218 4.767.978 2.454 2.911 5.166 5.587 7.842l.047.047.013.013.05.04c2.676 2.68 5.389 4.61 7.843 5.587 2.04.814 3.774.894 4.766.219l.04-.027c.363-.262.636-.488.814-.672.743-.78 1.116-1.523 1.102-2.209-.013-.665-.37-1.341-1.089-2.064a4.604 4.604 0 00-.934-.736l-.02-.01c-.558-.35-1.093-.47-1.634-.38-.582.098-1.183.457-1.792 1.062a4.8 4.8 0 00-.474.538c-.023.027-.047.054-.07.078-.286.265-.8.537-1.614.329-.46-.118-.978-.376-1.583-.79-1.15-.786-2.457-2.057-3.344-2.941l-.101-.1c-.884-.885-2.151-2.196-2.941-3.342-.414-.605-.673-1.123-.79-1.583-.205-.814.067-1.328.332-1.617a.506.506 0 01.078-.07 4.8 4.8 0 00.538-.475c.605-.605.96-1.206 1.062-1.791.09-.541-.034-1.076-.38-1.634l-.01-.02a4.724 4.724 0 00-.736-.934c-.726-.713-1.402-1.07-2.068-1.083zm15.009.995c.316.027.605.188.793.44l1.362 1.516c.215.242.315.562.275.881a1.09 1.09 0 01-.44.75l-3.62 3.183.793.88c.232.26.302.589.185.885-.118.295-.393.487-.743.514l-5.52.427c-.026.003-.053.003-.077.003a.908.908 0 01-.897-1.116l1.163-5.442c.07-.336.296-.585.598-.669.303-.084.622.024.854.28l.803.887 3.637-3.126c.222-.216.528-.32.834-.293zm-.111 1.445l-3.724 3.204a1.024 1.024 0 01-1.419-.09l-.36-.4-.84 3.935 3.933-.306-.336-.37a1.006 1.006 0 01-.015-1.328l.089-.09c.003-.003.006-.007.01-.007l3.768-3.317-1.106-1.23z" fill="#5CB615" fill-rule="nonzero"/></svg>
